X:30
T:On What Has Now Been Sown
%%stretchlast false
M:4/4
L:1/4
K:Bb clef=C1
"^I"[B,DFB] [B,FBd] [B,DB] "^V¹"[A,Fcf] | "^I"[B,Fd] "^vi"[GBdb]3 | "^Imaj7²"[FBda] "^IV"[EBeg] "^I¹"[DFBf] "^V7²"[CFAe] | "^I"[B,FBd] "^V"[F,FAc]3 | [F,FAc] "^I"[B,FBd] [B,DB] "^vi"[G,Bdg] | "^V¹"[A,Acf]/ "^V"[B,Acf]/ "^II"[CGc=e] "^V/V"[B,=Ec] "^V¹"[A,Fcc'] | "^I"[B,Fdb] "^V²"[CFca]2 "^II"[C=Ecg] | "^II7"[C=EBg] "^V"[F,FAf]3 | "^I"[B,DBf] "^IV"[EBg]2 "^vii°¹"[CEea]2 | "^I"[B,Fdb]3 | "^I¹"[DFB] "^vii°¹"[CEAc] "^I"[B,FBd] "^IV¹"[G,EBe] | "^I"[B,DBf] "^IV"[EBg] "^vii°¹"[CEea] "^I¹"[DFdb] | "^ii¹"[EGcc'] "^I²"[Fdb]2 "^V7"[F,Fea]2 | "^I"[B,Fdb]3 |]
